TileServer und Tiles/svg/8/55_2.svg

<?xml version='1.0' encoding='UTF-8' standalone='no'?>
<svg viewBox="0 0 497 279" width="497pt" height="279pt" xmlns="http://www.w3.org/2000/svg" xmlns:xlink="http://www.w3.org/1999/xlink">
 <defs overflow="visible" style="stroke:none;">
  <path id="glyph0-6" d="M 2.546875 -3.28125 L 0.328125 -6.4375 L 1.53125 -6.4375 L 3.1875 -4.015625 L 4.828125 -6.4375 L 6.015625 -6.4375 L 3.796875 -3.28125 L 6.125 0 L 4.9375 0 L 3.1875 -2.5625 L 1.40625 0 L 0.21875 0 Z M 2.546875 -3.28125 "/>
  <path id="glyph0-5" d="M 3.984375 -5.609375 L 2.359375 -5.609375 L 2.359375 0 L 1.3125 0 L 1.3125 -5.609375 L 0.1875 -5.609375 L 0.1875 -6.109375 L 1.3125 -6.46875 L 1.3125 -6.84375 C 1.3125 -7.675781 1.492188 -8.273438 1.859375 -8.640625 C 2.222656 -9.003906 2.734375 -9.1875 3.390625 -9.1875 C 3.648438 -9.1875 3.882812 -9.160156 4.09375 -9.109375 C 4.3125 -9.066406 4.492188 -9.019531 4.640625 -8.96875 L 4.375 -8.140625 C 4.238281 -8.179688 4.085938 -8.21875 3.921875 -8.25 C 3.753906 -8.289062 3.582031 -8.3125 3.40625 -8.3125 C 3.050781 -8.3125 2.785156 -8.191406 2.609375 -7.953125 C 2.441406 -7.722656 2.359375 -7.359375 2.359375 -6.859375 L 2.359375 -6.4375 L 3.984375 -6.4375 Z M 3.984375 -5.609375 "/>
  <path id="glyph0-4" d="M 1.5625 -8.84375 C 1.71875 -8.84375 1.859375 -8.785156 1.984375 -8.671875 C 2.109375 -8.566406 2.171875 -8.398438 2.171875 -8.171875 C 2.171875 -7.953125 2.109375 -7.785156 1.984375 -7.671875 C 1.859375 -7.554688 1.71875 -7.5 1.5625 -7.5 C 1.382812 -7.5 1.234375 -7.554688 1.109375 -7.671875 C 0.992188 -7.785156 0.9375 -7.953125 0.9375 -8.171875 C 0.9375 -8.398438 0.992188 -8.566406 1.109375 -8.671875 C 1.234375 -8.785156 1.382812 -8.84375 1.5625 -8.84375 Z M 2.078125 -6.4375 L 2.078125 0 L 1.015625 0 L 1.015625 -6.4375 Z M 2.078125 -6.4375 "/>
  <path id="glyph0-3" d="M 2.078125 0 L 1.015625 0 L 1.015625 -9.125 L 2.078125 -9.125 Z M 2.078125 0 "/>
  <path id="glyph0-2" d="M 3.453125 -6.546875 C 4.234375 -6.546875 4.8125 -6.375 5.1875 -6.03125 C 5.570312 -5.6875 5.765625 -5.132812 5.765625 -4.375 L 5.765625 0 L 4.984375 0 L 4.78125 -0.90625 L 4.734375 -0.90625 C 4.453125 -0.5625 4.15625 -0.300781 3.84375 -0.125 C 3.539062 0.0390625 3.117188 0.125 2.578125 0.125 C 1.992188 0.125 1.507812 -0.0234375 1.125 -0.328125 C 0.738281 -0.640625 0.546875 -1.125 0.546875 -1.78125 C 0.546875 -2.425781 0.796875 -2.921875 1.296875 -3.265625 C 1.804688 -3.617188 2.585938 -3.8125 3.640625 -3.84375 L 4.734375 -3.875 L 4.734375 -4.265625 C 4.734375 -4.796875 4.613281 -5.164062 4.375 -5.375 C 4.144531 -5.582031 3.816406 -5.6875 3.390625 -5.6875 C 3.054688 -5.6875 2.738281 -5.632812 2.4375 -5.53125 C 2.132812 -5.4375 1.847656 -5.328125 1.578125 -5.203125 L 1.265625 -5.984375 C 1.546875 -6.140625 1.875 -6.269531 2.25 -6.375 C 2.632812 -6.488281 3.035156 -6.546875 3.453125 -6.546875 Z M 4.71875 -3.140625 L 3.765625 -3.109375 C 2.960938 -3.078125 2.40625 -2.945312 2.09375 -2.71875 C 1.789062 -2.5 1.640625 -2.1875 1.640625 -1.78125 C 1.640625 -1.414062 1.75 -1.148438 1.96875 -0.984375 C 2.1875 -0.816406 2.46875 -0.734375 2.8125 -0.734375 C 3.363281 -0.734375 3.816406 -0.878906 4.171875 -1.171875 C 4.535156 -1.472656 4.71875 -1.9375 4.71875 -2.5625 Z M 4.71875 -3.140625 "/>
  <path id="glyph0-1" d="M 7.71875 0 L 6.640625 0 L 6.640625 -4 L 2.25 -4 L 2.25 0 L 1.15625 0 L 1.15625 -8.5625 L 2.25 -8.5625 L 2.25 -4.9375 L 6.640625 -4.9375 L 6.640625 -8.5625 L 7.71875 -8.5625 Z M 7.71875 0 "/>
  <path id="glyph0-0" d="M 1.125 0 L 1.125 -8.5625 L 6.0625 -8.5625 L 6.0625 0 Z M 1.734375 -0.609375 L 5.453125 -0.609375 L 5.453125 -7.953125 L 1.734375 -7.953125 Z M 1.734375 -0.609375 "/>
 </defs>
 <image width="497" height="279" xlink:href="svg/8/55_2.jpg"/>
 <g>
  <path style="fill-rule:nonzero;comp-op:darken;fill:rgb(97.647059%,97.647059%,96.862745%);fill-opacity:1;stroke-width:0.8;stroke-linecap:butt;stroke-linejoin:miter;stroke:rgb(43.529412%,43.529412%,35.686275%);stroke-opacity:1;comp-op:darken;stroke-miterlimit:4;" transform="matrix(1,0,0,1,212.332243,58.650665)" d="M 5.601351 3.001678 C 5.601351 4.435272 4.437288 5.599335 2.999788 5.599335 C 1.562288 5.599335 0.398226 4.435272 0.398226 3.001678 C 0.398226 1.564178 1.562288 0.400116 2.999788 0.400116 C 4.437288 0.400116 5.601351 1.564178 5.601351 3.001678 Z M 5.601351 3.001678 "/>
  <path style="fill:none;stroke-width:3;stroke-linecap:butt;stroke-linejoin:round;stroke:rgb(100%,100%,100%);stroke-opacity:0.6;stroke-miterlimit:10;" transform=" rotate(  340 216.604 53.6507) " d="M 203.539062 56.652344 L 202.460938 56.652344 L 202.460938 52.652344 L 198.070312 52.652344 L 198.070312 56.652344 L 196.976562 56.652344 L 196.976562 48.089844 L 198.070312 48.089844 L 198.070312 51.714844 L 202.460938 51.714844 L 202.460938 48.089844 L 203.539062 48.089844 Z M 203.539062 56.652344 "/>
  <path style="fill:none;stroke-width:3;stroke-linecap:butt;stroke-linejoin:round;stroke:rgb(100%,100%,100%);stroke-opacity:0.6;stroke-miterlimit:10;" transform=" rotate(  340 216.604 53.6507) " d="M 208.164062 50.105469 C 208.945312 50.105469 209.523438 50.277344 209.898438 50.621094 C 210.28125 50.964844 210.476562 51.519531 210.476562 52.277344 L 210.476562 56.652344 L 209.695312 56.652344 L 209.492188 55.746094 L 209.445312 55.746094 C 209.164062 56.089844 208.867188 56.351562 208.554688 56.527344 C 208.25 56.691406 207.828125 56.777344 207.289062 56.777344 C 206.703125 56.777344 206.21875 56.628906 205.835938 56.324219 C 205.449219 56.011719 205.257812 55.527344 205.257812 54.871094 C 205.257812 54.226562 205.507812 53.730469 206.007812 53.386719 C 206.515625 53.035156 207.296875 52.839844 208.351562 52.808594 L 209.445312 52.777344 L 209.445312 52.386719 C 209.445312 51.855469 209.324219 51.488281 209.085938 51.277344 C 208.855469 51.070312 208.527344 50.964844 208.101562 50.964844 C 207.765625 50.964844 207.449219 51.019531 207.148438 51.121094 C 206.84375 51.214844 206.558594 51.324219 206.289062 51.449219 L 205.976562 50.667969 C 206.257812 50.511719 206.585938 50.382812 206.960938 50.277344 C 207.34375 50.164062 207.746094 50.105469 208.164062 50.105469 Z M 209.429688 53.511719 L 208.476562 53.542969 C 207.671875 53.574219 207.117188 53.707031 206.804688 53.933594 C 206.5 54.152344 206.351562 54.464844 206.351562 54.871094 C 206.351562 55.238281 206.460938 55.503906 206.679688 55.667969 C 206.898438 55.835938 207.179688 55.917969 207.523438 55.917969 C 208.074219 55.917969 208.527344 55.773438 208.882812 55.480469 C 209.246094 55.179688 209.429688 54.714844 209.429688 54.089844 Z M 209.429688 53.511719 "/>
  <path style="fill:none;stroke-width:3;stroke-linecap:butt;stroke-linejoin:round;stroke:rgb(100%,100%,100%);stroke-opacity:0.6;stroke-miterlimit:10;" transform=" rotate(  340 216.604 53.6507) " d="M 213.523438 56.652344 L 212.460938 56.652344 L 212.460938 47.527344 L 213.523438 47.527344 Z M 213.523438 56.652344 "/>
  <path style="fill:none;stroke-width:3;stroke-linecap:butt;stroke-linejoin:round;stroke:rgb(100%,100%,100%);stroke-opacity:0.6;stroke-miterlimit:10;" transform=" rotate(  340 216.604 53.6507) " d="M 216.101562 47.808594 C 216.257812 47.808594 216.398438 47.867188 216.523438 47.980469 C 216.648438 48.085938 216.710938 48.253906 216.710938 48.480469 C 216.710938 48.699219 216.648438 48.867188 216.523438 48.980469 C 216.398438 49.097656 216.257812 49.152344 216.101562 49.152344 C 215.921875 49.152344 215.773438 49.097656 215.648438 48.980469 C 215.53125 48.867188 215.476562 48.699219 215.476562 48.480469 C 215.476562 48.253906 215.53125 48.085938 215.648438 47.980469 C 215.773438 47.867188 215.921875 47.808594 216.101562 47.808594 Z M 216.617188 50.214844 L 216.617188 56.652344 L 215.554688 56.652344 L 215.554688 50.214844 Z M 216.617188 50.214844 "/>
  <path style="fill:none;stroke-width:3;stroke-linecap:butt;stroke-linejoin:round;stroke:rgb(100%,100%,100%);stroke-opacity:0.6;stroke-miterlimit:10;" transform=" rotate(  340 216.604 53.6507) " d="M 221.621094 51.042969 L 219.996094 51.042969 L 219.996094 56.652344 L 218.949219 56.652344 L 218.949219 51.042969 L 217.824219 51.042969 L 217.824219 50.542969 L 218.949219 50.183594 L 218.949219 49.808594 C 218.949219 48.976562 219.128906 48.378906 219.496094 48.011719 C 219.859375 47.648438 220.371094 47.464844 221.027344 47.464844 C 221.285156 47.464844 221.519531 47.492188 221.730469 47.542969 C 221.949219 47.585938 222.128906 47.632812 222.277344 47.683594 L 222.011719 48.511719 C 221.875 48.472656 221.722656 48.433594 221.558594 48.402344 C 221.390625 48.363281 221.21875 48.339844 221.042969 48.339844 C 220.6875 48.339844 220.421875 48.460938 220.246094 48.699219 C 220.078125 48.929688 219.996094 49.292969 219.996094 49.792969 L 219.996094 50.214844 L 221.621094 50.214844 Z M 221.621094 51.042969 "/>
  <path style="fill:none;stroke-width:3;stroke-linecap:butt;stroke-linejoin:round;stroke:rgb(100%,100%,100%);stroke-opacity:0.6;stroke-miterlimit:10;" transform=" rotate(  340 216.604 53.6507) " d="M 225.21875 50.105469 C 226 50.105469 226.578125 50.277344 226.953125 50.621094 C 227.335938 50.964844 227.53125 51.519531 227.53125 52.277344 L 227.53125 56.652344 L 226.75 56.652344 L 226.546875 55.746094 L 226.5 55.746094 C 226.21875 56.089844 225.921875 56.351562 225.609375 56.527344 C 225.304688 56.691406 224.882812 56.777344 224.34375 56.777344 C 223.757812 56.777344 223.273438 56.628906 222.890625 56.324219 C 222.503906 56.011719 222.3125 55.527344 222.3125 54.871094 C 222.3125 54.226562 222.5625 53.730469 223.0625 53.386719 C 223.570312 53.035156 224.351562 52.839844 225.40625 52.808594 L 226.5 52.777344 L 226.5 52.386719 C 226.5 51.855469 226.378906 51.488281 226.140625 51.277344 C 225.910156 51.070312 225.582031 50.964844 225.15625 50.964844 C 224.820312 50.964844 224.503906 51.019531 224.203125 51.121094 C 223.898438 51.214844 223.613281 51.324219 223.34375 51.449219 L 223.03125 50.667969 C 223.3125 50.511719 223.640625 50.382812 224.015625 50.277344 C 224.398438 50.164062 224.800781 50.105469 225.21875 50.105469 Z M 226.484375 53.511719 L 225.53125 53.542969 C 224.726562 53.574219 224.171875 53.707031 223.859375 53.933594 C 223.554688 54.152344 223.40625 54.464844 223.40625 54.871094 C 223.40625 55.238281 223.515625 55.503906 223.734375 55.667969 C 223.953125 55.835938 224.234375 55.917969 224.578125 55.917969 C 225.128906 55.917969 225.582031 55.773438 225.9375 55.480469 C 226.300781 55.179688 226.484375 54.714844 226.484375 54.089844 Z M 226.484375 53.511719 "/>
  <path style="fill:none;stroke-width:3;stroke-linecap:butt;stroke-linejoin:round;stroke:rgb(100%,100%,100%);stroke-opacity:0.6;stroke-miterlimit:10;" transform=" rotate(  340 216.604 53.6507) " d="M 231.042969 53.371094 L 228.824219 50.214844 L 230.027344 50.214844 L 231.683594 52.636719 L 233.324219 50.214844 L 234.511719 50.214844 L 232.292969 53.371094 L 234.621094 56.652344 L 233.433594 56.652344 L 231.683594 54.089844 L 229.902344 56.652344 L 228.714844 56.652344 Z M 231.042969 53.371094 "/>
  <g style="fill:rgb(13.333333%,13.333333%,13.333333%);fill-opacity:1;" transform=" rotate(  340 216.604 53.6507) ">
   <use xlink:href="#glyph0-1" y="56.650665" x="195.820243"/>
   <use xlink:href="#glyph0-2" y="56.650665" x="204.712243"/>
   <use xlink:href="#glyph0-3" y="56.650665" x="211.444243"/>
   <use xlink:href="#glyph0-4" y="56.650665" x="214.540243"/>
   <use xlink:href="#glyph0-5" y="56.650665" x="217.636243"/>
   <use xlink:href="#glyph0-2" y="56.650665" x="221.764243"/>
   <use xlink:href="#glyph0-6" y="56.650665" x="228.496243"/>
  </g>
 </g>
</svg>

<svg xmlns="http://www.w3.org/2000/svg" xmlns:xlink="http://www.w3.org/1999/xlink" viewBox="0 0 497 279"> <defs overflow="visible" style="stroke:none">  <path id="f" d="M2.5-3.3.3-6.4h1.2L3.2-4l1.6-2.4H6L3.8-3.3 6.1 0H5L3.2-2.6 1.4 0H.2Zm0 0"/>  <path id="e" d="M4-5.6H2.4V0h-1v-5.6H.1v-.5l1.2-.4v-.3c0-.9.2-1.5.7-1.8.2-.4.7-.6 1.4-.6H4l.6.2-.2 1-.5-.3h-.5c-.3 0-.6.1-.8.3-.2.3-.2.6-.2 1.1v.5H4Zm0 0"/>  <path id="d" d="m1.6-8.8.4.1.2.5c0 .2 0 .4-.2.5l-.4.2c-.2 0-.4 0-.6-.2v-.5c0-.2 0-.4.1-.5l.5-.1ZM2-6.4V0H1v-6.4Zm0 0"/>  <path id="c" d="M2 0H1v-9.1h1Zm0 0"/>  <path id="b" d="M3.5-6.5c.7 0 1.3.1 1.7.5.4.3.6.9.6 1.6V0H5l-.2-1c-.4.5-.7.8-1.1 1H2.6C2 .1 1.6 0 1-.3.7-.6.5-1.1.5-1.8c0-.6.3-1.1.8-1.5.5-.3 1.3-.5 2.3-.5h1.1v-.6c0-.4 0-.8-.3-.9-.4-.4-.6-.5-1-.5a3 3 0 0 0-1 .3c-.3 0-.6.2-.8.3L1.3-6l1-.4 1.2-.1Zm1.2 3.4h-1c-.7 0-1.2.1-1.5.4-.4.2-.6.5-.6 1 0 .2.1.5.4.7.2.2.5.3.8.3.6 0 1-.3 1.4-.5.3-.3.5-.7.5-1.4Zm0 0"/>  <path id="a" d="M7.7 0h-1v-4H2.1v4h-.8v-8.6h.9v3.7h4.5v-3.7h1Zm0 0"/>  <path d="M1.1 0v-8.6h5V0Zm.6-.6h3.8V-8H1.7Zm0 0"/> </defs> <image xlink:href="svg/8/55_2.jpg" width="497" height="279"/> <path d="M5.6 3A2.6 2.6 0 0 1 3 5.6 2.6 2.6 0 1 1 3 .4C4.4.4 5.6 1.6 5.6 3Zm0 0" style="fill-rule:nonzero;comp-op:darken;fill:#f9f9f7;fill-opacity:1;stroke-width:.8;stroke-linecap:butt;stroke-linejoin:miter;stroke:#6f6f5b;stroke-opacity:1;stroke-miterlimit:4" transform="matrix(1,0,0,1,212.332243,58.650665)"/> <path d="M203.5 56.7h-1v-4H198v4h-1V48h1v3.7h4.6v-3.6h.9Zm4.7-6.6c.7 0 1.3.2 1.7.5.4.4.6 1 .6 1.7v4.4h-.8l-.2-1c-.4.4-.7.7-1.1.8-.1.2-.5.3-1 .3-.7 0-1.1-.2-1.6-.5-.4-.3-.5-.8-.5-1.3 0-.8.2-1.3.7-1.6.5-.4 1.3-.6 2.4-.6h1v-.4c0-.5 0-1-.3-1.1-.2-.3-.6-.3-1.1-.3a3 3 0 0 0-.9 0l-.8.4-.3-.7 1-.4 1.2-.3Zm1.2 3.4h-1c-.6 0-1.2.2-1.5.5-.4.2-.5.5-.5 1 0 .2 0 .5.3.7l.8.2c.6.1 1-.1 1.5-.4.2-.3.4-.8.4-1.5Zm4.1 3.2h-1v-9.2h1Zm2.6-8.9c.2 0 .3 0 .4.2l.2.5c0 .2 0 .4-.2.5l-.4.2-.5-.2-.1-.5.1-.5.5-.2Zm.5 2.4v6.5h-1v-6.5Zm5 .8H220v5.7h-1V51h-1.3v-.5l1.3-.3v-.4c0-.8.1-1.4.5-1.8.4-.4.9-.5 1.5-.5h.7l.6.2-.3.8-.4-.1h-.6c-.3-.1-.6-.1-.8.2l-.2 1.1v.6h1.6Zm3.6-.9c.8 0 1.4.2 1.8.5.3.4.5 1 .5 1.7v4.4h-.8l-.1-1c-.4.4-.7.7-1 .8-.3.2-.6.3-1.3.3-.5 0-1-.2-1.3-.5-.5-.3-.7-.8-.7-1.3 0-.8.3-1.3.8-1.6.5-.4 1.3-.6 2.3-.6h1.1v-.4c0-.5-.1-1-.4-1.1-.1-.3-.5-.3-1-.3a3 3 0 0 0-.8 0l-1 .4-.3-.7 1-.4 1.2-.3Zm1.3 3.4h-1c-.8 0-1.3.2-1.5.5-.4.2-.6.5-.6 1 0 .2.1.5.3.7l.9.2c.4.1 1-.1 1.3-.4.4-.3.6-.8.6-1.5Zm4.5-.1-2.2-3.2h1.2l1.7 2.4 1.6-2.4h1.2l-2.2 3.2 2.3 3.3h-1.2l-1.7-2.7-1.8 2.7h-1.2Zm0 0" style="fill:none;stroke-width:3;stroke-linecap:butt;stroke-linejoin:round;stroke:#fff;stroke-opacity:.6;stroke-miterlimit:10" transform=" rotate(  340 216.604 53.6507) "/> <g style="fill:#222;fill-opacity:1" transform=" rotate(  340 216.604 53.6507) ">  <use xlink:href="#a" x="195.8" y="56.7"/>  <use xlink:href="#b" x="204.7" y="56.7"/>  <use xlink:href="#c" x="211.4" y="56.7"/>  <use xlink:href="#d" x="214.5" y="56.7"/>  <use xlink:href="#e" x="217.6" y="56.7"/>  <use xlink:href="#b" x="221.8" y="56.7"/>  <use xlink:href="#f" x="228.5" y="56.7"/> </g></svg>
